icon-themes/breeze_svg/cmd/sc_connectorcircles.svg

<svg viewBox="0 0 16 16" xmlns="http://www.w3.org/2000/svg">
/&amp;gt;<path d="m3.5 2c-.82843 0-1.5.67157-1.5 1.5s.67157 1.5 1.5 1.5c.65584 0 1.20241-.4136 1.40625-1h.09375 3v9h.5 2.5.087891a1.5 1.5 0 0 0 1.412109 1 1.5 1.5 0 0 0 1.5-1.5 1.5 1.5 0 0 0 -1.5-1.5 1.5 1.5 0 0 0 -1.412109 1h-.087891-2v-8-1h-1.5-2.5-.09375c-.20384-.58642-.75041-1-1.40625-1zm0 1c.27614 0 .5.22386.5.5s-.22386.5-.5.5-.5-.22386-.5-.5.22386-.5.5-.5zm9 9a.5.5 0 0 1 .5.5.5.5 0 0 1 -.5.5.5.5 0 0 1 -.5-.5.5.5 0 0 1 .5-.5z" fill="#232629"/></svg>

<?xml version="1.0" encoding="UTF-8" standalone="no"?>
<svg
   xmlns:dc="http://purl.org/dc/elements/1.1/"
   xmlns:cc="http://creativecommons.org/ns#"
   xmlns:rdf="http://www.w3.org/1999/02/22-rdf-syntax-ns#"
   xmlns:svg="http://www.w3.org/2000/svg"
   xmlns="http://www.w3.org/2000/svg"
   xmlns:sodipodi="http://sodipodi.sourceforge.net/DTD/sodipodi-0.dtd"
   xmlns:inkscape="http://www.inkscape.org/namespaces/inkscape"
   viewBox="0 0 16 16"
   version="1.1"
   id="svg4"
   sodipodi:docname="sc_connectorcircles.svg"
   inkscape:version="0.92.4 (unknown)"><metadata
   id="metadata10">
  <rdf:RDF>
    <cc:Work
       rdf:about="">
      <dc:format>image/svg+xml</dc:format>
      <dc:type
         rdf:resource="http://purl.org/dc/dcmitype/StillImage" />
      <dc:title></dc:title>
    </cc:Work>
  </rdf:RDF>
</metadata>
<defs
   id="defs8" />
<sodipodi:namedview
   pagecolor="#ffffff"
   bordercolor="#666666"
   borderopacity="1"
   objecttolerance="10"
   gridtolerance="10"
   guidetolerance="10"
   inkscape:pageopacity="0"
   inkscape:pageshadow="2"
   inkscape:window-width="1360"
   inkscape:window-height="714"
   id="namedview6"
   showgrid="true"
   inkscape:zoom="14.75"
   inkscape:cx="11.319808"
   inkscape:cy="3.3961014"
   inkscape:window-x="0"
   inkscape:window-y="28"
   inkscape:window-maximized="1"
   inkscape:current-layer="svg4">
  <inkscape:grid
     type="xygrid"
     id="grid817" />
</sodipodi:namedview>
/&gt;<path
   d="M 3.5 2 C 2.67157 2 2 2.67157 2 3.5 C 2 4.32843 2.67157 5 3.5 5 C 4.15584 5 4.70241 4.5864 4.90625 4 L 5 4 L 8 4 L 8 13 L 8.5 13 L 11 13 L 11.087891 13 A 1.5 1.5 0 0 0 12.5 14 A 1.5 1.5 0 0 0 14 12.5 A 1.5 1.5 0 0 0 12.5 11 A 1.5 1.5 0 0 0 11.087891 12 L 11 12 L 9 12 L 9 4 L 9 3 L 7.5 3 L 5 3 L 4.90625 3 C 4.70241 2.41358 4.15584 2 3.5 2 z M 3.5 3 C 3.77614 3 4 3.22386 4 3.5 C 4 3.77614 3.77614 4 3.5 4 C 3.22386 4 3 3.77614 3 3.5 C 3 3.22386 3.22386 3 3.5 3 z M 12.5 12 A 0.5 0.5 0 0 1 13 12.5 A 0.5 0.5 0 0 1 12.5 13 A 0.5 0.5 0 0 1 12 12.5 A 0.5 0.5 0 0 1 12.5 12 z "
   id="path2"
   style="fill:#232629;fill-opacity:1" />
</svg>
